public/icons/sort-up.svg

<?xml version="1.0" encoding="utf-8"?><!-- Uploaded to: SVG Repo, www.svgrepo.com, Generator: SVG Repo Mixer Tools -->
<svg width="800px" height="800px" viewBox="0 0 15 15" fill="none" xmlns="http://www.w3.org/2000/svg">
<path d="M3.5 0.5L3.85355 0.146447C3.65829 -0.0488155 3.34171 -0.0488155 3.14645 0.146447L3.5 0.5ZM3.14645 0.146447L0.146447 3.14645L0.853553 3.85355L3.85355 0.853553L3.14645 0.146447ZM3.14645 0.853553L6.14645 3.85355L6.85355 3.14645L3.85355 0.146447L3.14645 0.853553ZM3 0.5V15H4V0.5H3ZM9 4H15V3H9V4ZM9 8H13V7H9V8ZM9 12H11V11H9V12Z" fill="#000000"/>
</svg>

<svg xmlns="http://www.w3.org/2000/svg" width="800" height="800" fill="none" viewBox="0 0 15 15">
  <path fill="#000" d="m3.5.5.354-.354a.5.5 0 0 0-.708 0zM3.146.146l-3 3 .708.708 3-3zm0 .708 3 3 .708-.708-3-3zM3 .5V15h1V.5zM9 4h6V3H9zm0 4h4V7H9zm0 4h2v-1H9z"/>
</svg>
